X:337
T:Ballochyle
C:Joe Buchanan's Scottish Tome - Page 119.0
I:119 0
C:Peter MacLeod P.M.
R:March
Z:Carl Allison
L:1/8
M:6/8
K:A
a | {g}"D"f>ec "A"A>AA | "A"c<ee "D"f>ea | "D"f>ec "A"A>AA | "Bm"B>cA {Bc}"E7"B a |
{g}"D"f>ec "A"A>AA | "A"c<ee "D"f>ea | "A"A>cf "E7"c<eB | "A"A>AA A>A :|
d | "A"c<ee e>Ac | "D"f>ee f<aa | "A"f>ec A>AA | "Bm"B>cA {Bc}"E7"B2 d |
"A"c<ee e>Ac | f>ee f<aa | "A"A>cf "E7"c<eB | "A"A>AA  A2 A2 d  |
"A"c<ee e>Ac | "D"f>ee f<aa | "A"f>ec A>AA | "Bm"B>cA {Bc}"E7"B2 a |
"D"f>ec "A"A>AA | "A"c<ee "D"f>ea | "A"A>c/f "E7"c<eB | "A"A>AA A>A |]
a | "A"c>AA "E7"B>AA | "A"c<ee "D"f>ea | "D"f>ec "A"e>cA | "Bm"B>cA {Bc}"E7"B2 a |
"A"c>AA "E7"B>AA | "A"c<ee "D"f>ea | "A"A>cf "E7"c<eB | "A"A>AA A>A :|
d | "A"c<ee "D"f<aa | "D"f>ee f<aa | "D"f>ec "A"e>cA | "Bm"B>cA {Bc}"E"B2 d |
"A"c<ee f<aa | "D"f>ee f<aa | "A"A>cf "E7"c<eB | "A"A>AA A2 d |
"A"c<ee f<aa | "D"f>ee f<aa | "D"f>ec "A"e>cA | "Bm"B>cA {Bc}"E7"B2 a |
"A"c>AA "E7"B>AA | "A"c<ee "D"f>ea | "A"A>cf "E7"c<eB | "A"A>AA A>A |]
